X:806
T:Connie O'Connell's
R:reel
H:See also Reavy's #812
Z:id:hn-reel-806
M:C|
L:1/8
K:G
Add^c d2=cA|=F2cF dFcF|Add^c d3e|fdcA ABcA|
d3^c d2=cA|=F2cF dFcF|Add^c d3e|fdcA ~G3z||
~g3e fdde|fgag fdd2|g2ag fdde|fdcA BG~G2|
~g3e fdde|fgag fdd2|fefg ~a3g|fdcA BG~G2||

